source/img/sprite/boots-blue.svg

<svg width="24" height="24" viewBox="0 0 24 24" fill="none" xmlns="http://www.w3.org/2000/svg">
<path d="M22.5984 15.538C23.2763 13.2529 22.7185 10.6592 22.1258 8.86192C22.1219 8.79239 22.102 8.72499 22.0677 8.66594C21.8663 8.08214 21.6803 7.6026 21.5215 7.25649C21.8139 7.13118 22.0067 6.82792 22.0096 6.48921V3.01563C22.0096 2.55501 21.6627 2.18164 21.2348 2.18164H11.7171C11.5032 2.18122 11.3295 2.36757 11.3291 2.59791C11.3291 2.60651 11.3293 2.61511 11.3298 2.62366C11.4615 5.12564 11.291 6.82281 10.7991 8.01959C10.7893 8.03148 10.7802 8.04404 10.772 8.05712C10.7705 8.07792 10.7705 8.09887 10.772 8.11967C10.5842 8.55533 10.3302 8.95413 10.0205 9.29977L9.98559 9.32479C9.98559 9.32479 9.98559 9.32479 9.98559 9.35398C9.53144 9.82024 9.00767 10.2008 8.4361 10.4799C7.44027 10.9555 6.41829 11.3649 5.37587 11.7058L5.17831 11.7767C1.55639 13.0694 1.0838 15.4129 1.09155 16.5889C1.09058 16.6055 1.09058 16.6222 1.09155 16.6389V19.6163C1.09213 19.7612 1.16248 19.8953 1.27748 19.9707C2.16515 20.5521 3.12331 20.9983 4.12466 21.2968C4.3306 21.3591 4.54452 21.2299 4.60244 21.0082C4.61333 20.9664 4.61812 20.9231 4.61662 20.8798V20.7839H5.18606V21.2008C5.18359 21.4074 5.32203 21.5848 5.51145 21.6178C5.84846 21.6762 6.18548 21.7221 6.51474 21.7513C6.62263 21.761 6.72939 21.7217 6.80914 21.6429C6.88885 21.5633 6.93383 21.4513 6.9331 21.3343V20.8089H7.50254V21.401C7.50254 21.6313 7.67598 21.818 7.88991 21.818C8.2153 21.818 8.54069 21.818 8.88933 21.768C9.0911 21.7506 9.24634 21.5689 9.24571 21.351V20.8089H9.81514V21.1758C9.81238 21.4061 9.98355 21.5952 10.1975 21.5982C10.2199 21.5985 10.2423 21.5967 10.2645 21.5928C10.9756 21.4756 11.6765 21.2957 12.3602 21.0549L12.4222 21.0257C15.1337 19.3577 16.8537 20.7296 16.9234 20.788C16.991 20.8445 17.0741 20.8753 17.1597 20.8756H17.64C17.854 20.8756 18.0274 20.6889 18.0274 20.4586V19.7539H18.5814V20.4503C18.5814 20.6805 18.7548 20.8673 18.9687 20.8673H20.2161C20.43 20.8673 20.6034 20.6805 20.6034 20.4503V19.7539H21.1767V20.4503C21.1767 20.6805 21.3502 20.8673 21.5641 20.8673H22.5209C22.7348 20.8673 22.9083 20.6805 22.9083 20.4503V15.955C22.9121 15.7537 22.7817 15.5783 22.5984 15.538ZM13.4061 3.02397H21.2155V6.4767H13.4061V3.02397ZM8.53682 11.3389L8.54069 11.3639C8.85824 11.6414 9.15129 11.9499 9.41615 12.2855C9.34589 12.4112 9.30967 12.5557 9.31156 12.7025C9.3089 13.1423 9.63802 13.5012 10.0466 13.5041C10.4552 13.507 10.7886 13.1527 10.7913 12.7128C10.7938 12.2984 10.5007 11.9512 10.1173 11.9143C9.87228 11.5547 9.59313 11.2235 9.28445 10.9261C9.63061 10.714 9.95629 10.4653 10.2567 10.1838C10.6324 10.5632 10.982 10.9716 11.3026 11.4056C11.1679 11.8209 11.3714 12.2751 11.7571 12.4202C12.1429 12.5653 12.5648 12.3462 12.6996 11.931C12.8344 11.5157 12.6309 11.0615 12.2452 10.9164C12.1651 10.8863 12.0809 10.8712 11.996 10.8718H11.9031C11.5633 10.4114 11.1931 9.97796 10.7952 9.57499C10.9798 9.33026 11.1432 9.06787 11.2833 8.79104C11.883 9.12708 12.4626 9.50311 13.0187 9.91693C13.0149 10.3614 13.3465 10.725 13.7594 10.7291C14.1723 10.7332 14.5101 10.3762 14.5139 9.93178C14.5177 9.48731 14.1861 9.12369 13.7732 9.11958C13.6553 9.11838 13.5387 9.14725 13.4332 9.20386C12.8478 8.77727 12.2385 8.39015 11.6087 8.04461C12.0309 6.83532 12.213 5.22989 12.1277 3.04065H12.6352V6.49338C12.6352 6.95401 12.982 7.32738 13.4099 7.32738H20.6693C20.77 7.54839 20.9404 7.93202 21.1264 8.43242H20.9676C18.6143 8.45071 16.7204 10.5191 16.7374 13.0524C16.747 14.4919 17.3839 15.843 18.4574 16.7015C15.3236 17.5897 10.6093 18.6447 6.64257 18.3694C7.37471 15.2211 6.49925 13.2821 5.92981 12.4314C6.81655 12.1183 7.68683 11.7536 8.53682 11.3389ZM5.1512 12.6691C5.56956 13.1987 6.66194 14.9793 5.86008 18.2527C4.46429 18.1346 3.10864 17.6936 1.88566 16.96C1.87176 16.8647 1.86271 16.7686 1.85854 16.6723V16.6431C1.82755 15.7549 2.13745 13.8325 5.1512 12.6691ZM21.9515 20.0333V19.3369C21.9515 19.1066 21.778 18.9199 21.5641 18.9199H20.2199C20.006 18.9199 19.8326 19.1066 19.8326 19.3369V20.0333H19.3561V19.3369C19.3561 19.1066 19.1826 18.9199 18.9687 18.9199H17.6323C17.4184 18.9199 17.2449 19.1066 17.2449 19.3369V20.0166C16.7181 19.6621 14.7929 18.6322 12.0619 20.2751C11.576 20.4478 11.0805 20.587 10.5783 20.6921V20.4044C10.5783 20.1741 10.4048 19.9874 10.1909 19.9874H8.85446C8.64054 19.9874 8.46709 20.1741 8.46709 20.4044V20.9757H8.26953V20.3919C8.26953 20.1616 8.09609 19.9749 7.88216 19.9749H6.53798C6.32406 19.9749 6.15061 20.1616 6.15061 20.3919V20.8881L5.95305 20.8589V20.3919C5.95305 20.1616 5.77961 19.9749 5.56568 19.9749H4.22151C4.02448 19.9734 3.85776 20.1313 3.83413 20.3418C3.1466 20.0982 2.48453 19.7781 1.85854 19.3869V17.8941C3.54748 18.8573 5.73225 19.2201 8.05648 19.2201C14.2312 19.2201 21.2968 16.6764 22.1297 16.372L22.1335 20.0333H21.9515ZM21.7617 15.6339C21.4324 15.7507 20.6228 16.0509 19.5033 16.372C17.7701 15.4691 17.0451 13.2246 17.8839 11.359C18.4577 10.0827 19.6506 9.26354 20.9676 9.24139C21.1203 9.2391 21.273 9.24744 21.4247 9.26641L21.4285 9.27892C21.998 11.047 22.5093 13.5698 21.7617 15.6339Z" fill="#0266C1"/>
<path d="M14.8978 3.52858C14.2752 3.52858 13.7705 4.07187 13.7705 4.74204C13.7726 5.41126 14.2761 5.9532 14.8978 5.9555C15.5203 5.9555 16.025 5.4122 16.025 4.74204C16.025 4.07187 15.5204 3.52858 14.8978 3.52858ZM14.8978 5.1215C14.7031 5.1215 14.5453 4.95163 14.5453 4.74204C14.5453 4.53244 14.7031 4.36257 14.8978 4.36257C15.0925 4.36257 15.2503 4.53244 15.2503 4.74204C15.2503 4.95163 15.0925 5.1215 14.8978 5.1215Z" fill="#0266C1"/>
</svg>

<svg width="24" height="24" fill="none" xmlns="http://www.w3.org/2000/svg"><path d="M22.6 15.54c.68-2.29.12-4.88-.47-6.68a16.28 16.28 0 0 0-.6-1.6c.28-.13.48-.43.48-.77V3.02c0-.46-.35-.84-.78-.84h-9.51c-.22 0-.4.19-.4.42l.01.02c.13 2.5-.04 4.2-.53 5.4a.36.36 0 0 0-.03.04v.06c-.19.44-.44.83-.75 1.18l-.03.02v.03c-.46.47-.98.85-1.55 1.13-1 .48-2.02.88-3.06 1.23l-.2.07c-3.62 1.29-4.1 3.63-4.09 4.8v3.04c0 .14.07.28.19.35.89.58 1.84 1.03 2.84 1.33.21.06.42-.07.48-.3a.45.45 0 0 0 .02-.12v-.1h.57v.42c0 .2.13.38.32.42.34.06.68.1 1 .13.11.01.22-.03.3-.1.08-.09.12-.2.12-.32v-.52h.57v.6c0 .22.18.4.39.4.33 0 .65 0 1-.04.2-.02.36-.2.36-.42v-.54h.57v.37c0 .23.16.42.38.42h.06c.72-.12 1.42-.3 2.1-.55l.06-.02c2.71-1.67 4.43-.3 4.5-.24.07.05.15.09.24.09h.48c.21 0 .39-.2.39-.42v-.7h.55v.69c0 .23.17.42.39.42h1.25c.21 0 .38-.19.38-.42v-.7h.58v.7c0 .23.17.42.38.42h.96c.21 0 .39-.19.39-.42v-4.5c0-.2-.13-.37-.31-.41ZM13.4 3.02h7.82v3.46H13.4V3.02Zm-4.86 8.32v.02c.32.28.61.59.88.93a.83.83 0 0 0-.1.41c-.01.44.32.8.73.8.4 0 .74-.35.74-.79 0-.41-.29-.76-.67-.8-.25-.36-.53-.69-.84-.98.35-.22.68-.46.98-.75.37.38.72.8 1.04 1.23-.13.41.07.87.46 1.01.38.15.8-.07.94-.49.13-.41-.07-.87-.45-1.01a.7.7 0 0 0-.25-.05h-.1c-.34-.46-.7-.9-1.1-1.3.18-.24.34-.5.48-.78.6.34 1.18.71 1.74 1.13 0 .44.33.8.74.8.41.01.75-.34.75-.79 0-.44-.32-.8-.74-.81a.7.7 0 0 0-.34.08 16.9 16.9 0 0 0-1.82-1.16c.42-1.2.6-2.81.52-5h.5V6.5c0 .46.35.84.78.84h7.26c.1.22.27.6.46 1.1h-.16c-2.36.02-4.25 2.09-4.23 4.62a4.7 4.7 0 0 0 1.72 3.65c-3.14.89-7.85 1.94-11.82 1.67.73-3.15-.14-5.09-.71-5.94a24.7 24.7 0 0 0 2.6-1.1Zm-3.39 1.33c.42.53 1.51 2.3.71 5.58a9.23 9.23 0 0 1-3.97-1.29l-.03-.29v-.03c-.03-.89.28-2.8 3.3-3.97Zm16.8 7.36v-.7c0-.22-.17-.41-.39-.41h-1.34c-.21 0-.39.19-.39.42v.7h-.47v-.7c0-.23-.18-.42-.4-.42h-1.33c-.21 0-.39.19-.39.42v.68c-.52-.36-2.45-1.39-5.18.26-.48.17-.98.3-1.48.41v-.29c0-.23-.18-.41-.39-.41H8.85c-.2 0-.38.18-.38.41v.58h-.2v-.59c0-.23-.17-.42-.39-.42H6.54c-.22 0-.39.2-.39.42v.5l-.2-.03v-.47c0-.23-.17-.42-.38-.42H4.22a.4.4 0 0 0-.39.37c-.68-.24-1.35-.56-1.97-.95v-1.5c1.69.97 3.87 1.33 6.2 1.33 6.17 0 13.24-2.54 14.07-2.85v3.66h-.18Zm-.19-4.4c-.33.12-1.14.42-2.26.74a3.89 3.89 0 0 1-1.62-5.01 3.48 3.48 0 0 1 3.54-2.1v.02c.58 1.77 1.09 4.29.34 6.35Z" fill="#0266C1"/><path d="M14.9 3.53c-.62 0-1.13.54-1.13 1.21 0 .67.5 1.21 1.13 1.22.62 0 1.12-.55 1.12-1.22 0-.67-.5-1.21-1.12-1.21Zm0 1.6c-.2 0-.35-.18-.35-.39 0-.2.15-.38.35-.38.2 0 .35.17.35.38s-.16.38-.35.38Z" fill="#0266C1"/></svg>
